Sources/FrostedUI/Resources/Icons.xcassets/telegram32.imageset/telegram-32.svg

<svg width="32" height="32" viewBox="0 0 32 32" fill="none" xmlns="http://www.w3.org/2000/svg" data-fui-icon="true">
  <path
    d="M28.704 3.68652C28.8515 3.69322 29.0307 3.71518 29.2177 3.75977C29.4624 3.81816 29.7762 3.92995 30.0497 4.15039L30.0536 4.15332C30.5271 4.54051 30.6397 5.05459 30.6835 5.2959L30.6854 5.30273L30.6864 5.31055C30.7239 5.54293 30.7766 6.0668 30.7323 6.51172C30.3419 10.6139 28.6562 20.5074 27.8026 25.0566C27.4302 27.0567 26.5982 28.1886 25.3729 28.3008C24.4034 28.3895 23.5833 28.0612 22.8651 27.6406C22.5084 27.4317 22.1605 27.1899 21.826 26.9531C21.655 26.832 21.4871 26.7125 21.3192 26.5947L20.8094 26.248C19.6697 25.5028 18.777 24.898 17.8973 24.3008C17.0179 23.7037 16.1515 23.1141 15.0555 22.3945C14.3801 21.9509 13.8796 21.4939 13.6112 20.9814C13.3143 20.4144 13.3392 19.8546 13.5594 19.3545C13.757 18.9061 14.1066 18.515 14.4315 18.1855C14.5998 18.0149 14.7827 17.8404 14.9579 17.6719C15.1363 17.5003 15.3117 17.33 15.4823 17.1533C15.6885 16.9394 17.473 15.3092 19.1552 13.7256C19.6999 13.2128 20.2381 12.6991 20.7216 12.2305C20.4972 12.3773 20.2548 12.5358 19.995 12.707C18.1866 13.8986 15.5284 15.6737 12.0184 18.0342C10.9219 18.786 9.83768 19.218 8.78308 19.1953C8.23298 19.1835 7.4894 19.0351 6.76257 18.8535C6.20451 18.7141 5.62095 18.5455 5.08191 18.3789L4.55945 18.2139C3.81224 17.9713 2.99551 17.744 2.42566 17.4688C2.13181 17.3268 1.81772 17.1344 1.58679 16.8516C1.33177 16.5389 1.20771 16.1506 1.26257 15.7178H1.26355C1.33078 15.1787 1.70921 14.7834 2.08289 14.5068C2.47312 14.2181 2.99887 13.9539 3.62585 13.7041L8.7948 11.4648C13.4943 9.43341 16.7874 8.02599 18.6718 7.24414L18.6727 7.24316C22.2513 5.76001 24.4296 4.88203 25.8368 4.37305C27.2312 3.86871 27.9476 3.6956 28.5673 3.68457L28.704 3.68652ZM28.5927 5.18457C28.2415 5.19096 27.7283 5.28479 26.3475 5.78418C25.3204 6.15568 23.8558 6.73487 21.6757 7.62793L19.2469 8.62891C16.7478 9.66582 11.7419 11.8157 4.22351 15.0801L4.21179 15.085L4.20105 15.0889C3.6175 15.3201 3.22018 15.5318 2.97546 15.7129C2.83988 15.8132 2.78167 15.8812 2.75867 15.9131C2.79478 15.9516 2.88336 16.0241 3.078 16.1182C3.52537 16.3342 4.15819 16.5065 5.02234 16.7871H5.02136C5.66968 16.997 6.42507 17.2233 7.12585 17.3984C7.84416 17.5779 8.44686 17.6884 8.81531 17.6963C9.43653 17.7096 10.2128 17.4546 11.1708 16.7979L11.1766 16.7939C14.6899 14.4312 17.3543 12.6513 19.1698 11.4551C20.077 10.8573 20.7751 10.4024 21.2626 10.0938C21.5056 9.93987 21.7016 9.81889 21.8466 9.7334C21.9182 9.69114 21.9844 9.65372 22.0409 9.62402C22.0635 9.61215 22.18 9.54836 22.3085 9.51953L22.4852 9.48438C22.562 9.47232 22.6534 9.46215 22.7489 9.46289C22.9489 9.46449 23.2407 9.51321 23.496 9.7373H23.4969C23.4983 9.73846 23.4995 9.74003 23.5009 9.74121C23.5022 9.74243 23.5043 9.74388 23.5057 9.74512H23.5048C23.763 9.97459 23.8437 10.2672 23.87 10.4443C23.896 10.6204 23.8845 10.7946 23.8544 10.9248L23.8563 10.9258C23.8259 11.0575 23.7676 11.1598 23.7401 11.2061C23.7052 11.2649 23.6655 11.3212 23.6288 11.3701C23.555 11.4684 23.4617 11.5787 23.3593 11.6934C23.1523 11.9251 22.871 12.2163 22.5468 12.541C21.8962 13.1927 21.041 14.0101 20.1835 14.8174C19.3248 15.6258 18.4578 16.4293 17.7841 17.0537C17.4468 17.3663 17.1591 17.6337 16.9432 17.835C16.8353 17.9356 16.7465 18.0186 16.6796 18.082C16.6461 18.1137 16.6184 18.14 16.5975 18.1602C16.5874 18.17 16.5793 18.1784 16.5731 18.1846C16.5701 18.1876 16.5671 18.1896 16.5653 18.1914C16.5645 18.1922 16.5638 18.1929 16.5634 18.1934V18.1943L16.5624 18.1953C16.3707 18.3938 16.1772 18.5805 15.9979 18.7529C15.8153 18.9286 15.6505 19.0855 15.4999 19.2383C15.187 19.5556 15.011 19.781 14.9325 19.959C14.8769 20.0852 14.8764 20.163 14.9403 20.2852C15.033 20.4622 15.2814 20.7482 15.8788 21.1406C16.9858 21.8674 17.8615 22.4631 18.7401 23.0596C19.6188 23.6561 20.5017 24.2547 21.6298 24.9922C22.0073 25.2388 22.3666 25.4979 22.6923 25.7285C23.0254 25.9644 23.3272 26.1735 23.6229 26.3467C24.2098 26.6903 24.7074 26.855 25.2362 26.8066C25.3887 26.7927 25.9833 26.6329 26.328 24.7812V24.7803C27.1827 20.2255 28.857 10.3954 29.2401 6.37012V6.36523C29.2662 6.10719 29.2344 5.73685 29.2079 5.56348C29.1793 5.40621 29.1468 5.34974 29.1053 5.31543C29.0675 5.28618 28.9894 5.24746 28.869 5.21875C28.75 5.19042 28.6407 5.18376 28.5927 5.18457Z"
    fill="currentColor"
  />
</svg>

<svg xmlns="http://www.w3.org/2000/svg" width="32" height="32" fill="none" data-fui-icon="true" viewBox="0 0 32 32"><path fill="currentColor" d="M28.704 3.687c.148.006.327.028.514.073.244.058.558.17.832.39l.004.003c.473.388.586.902.63 1.143l.001.007.001.008c.038.232.09.756.046 1.2-.39 4.103-2.076 13.996-2.93 18.546-.372 2-1.204 3.132-2.43 3.244-.969.089-1.789-.24-2.507-.66-.357-.21-.704-.451-1.039-.688l-.507-.358-.51-.347a190 190 0 0 1-2.912-1.947c-.88-.597-1.745-1.187-2.841-1.906-.676-.444-1.176-.901-1.445-1.414a1.81 1.81 0 0 1-.052-1.626c.198-.449.548-.84.873-1.17.168-.17.35-.345.526-.513.178-.172.354-.342.524-.519.207-.214 1.991-1.844 3.673-3.427.545-.513 1.083-1.027 1.567-1.496l-.727.477a1106 1106 0 0 0-7.977 5.327c-1.096.752-2.18 1.184-3.235 1.161-.55-.012-1.294-.16-2.02-.341a32 32 0 0 1-1.681-.475l-.523-.165c-.747-.243-1.563-.47-2.133-.745-.294-.142-.608-.335-.84-.617a1.46 1.46 0 0 1-.323-1.134c.068-.54.446-.935.82-1.211.39-.289.916-.553 1.543-.803l5.169-2.24q7.05-3.046 9.877-4.22c3.58-1.484 5.758-2.362 7.165-2.87 1.394-.505 2.11-.678 2.73-.69zm-.111 1.498c-.352.006-.865.1-2.245.6-1.028.37-2.492.95-4.672 1.843l-2.43 1Q15.5 10.186 4.225 15.08l-.012.005-.01.004c-.584.231-.982.443-1.227.624a1 1 0 0 0-.216.2c.036.039.124.111.319.205.447.216 1.08.389 1.944.67.648.209 1.403.435 2.104.61.718.18 1.32.29 1.69.298.62.014 1.397-.241 2.355-.898l.006-.004q5.27-3.545 7.993-5.339 1.36-.898 2.093-1.361.365-.232.584-.36.108-.065.194-.11c.023-.012.139-.076.267-.104l.177-.036c.077-.012.168-.022.264-.021.2.001.492.05.747.274l.005.004.005.004h-.001c.258.23.339.522.365.7.026.175.014.35-.016.48h.002a1 1 0 0 1-.116.281 2 2 0 0 1-.111.164 5 5 0 0 1-.27.323c-.207.232-.488.523-.812.848-.65.652-1.506 1.47-2.364 2.276-.858.809-1.725 1.612-2.399 2.237l-1.186 1.106-.025.025-.008.006-.002.002v.002c-.192.199-.386.386-.565.558-.183.176-.348.332-.498.485-.313.318-.489.543-.568.721-.055.126-.056.204.008.326.093.177.341.463.939.856 1.107.726 1.983 1.322 2.861 1.919.879.596 1.762 1.195 2.89 1.932.377.247.737.506 1.062.736.333.236.635.445.93.619.588.343 1.085.508 1.614.46.153-.014.747-.174 1.092-2.026.855-4.555 2.529-14.386 2.912-18.41v-.006a4 4 0 0 0-.032-.802c-.029-.157-.061-.213-.103-.248a.7.7 0 0 0-.236-.096 1.2 1.2 0 0 0-.276-.034"/></svg>
